svgs/sharp-solid/cable-car.svg

<svg xmlns="http://www.w3.org/2000/svg" viewBox="0 0 512 512"><!--! Font Awesome Pro 6.6.0 by @fontawesome - https://fontawesome.com License - https://fontawesome.com/license (Commercial License) Copyright 2024 Fonticons, Inc. --><path d="M288 64a32 32 0 1 0 0-64 32 32 0 1 0 0 64zm-64-8a32 32 0 1 0 -64 0 32 32 0 1 0 64 0zm261 47.5l23.5-5L498.4 51.5l-23.5 5-224 48-224 48-23.5 5 10.1 46.9 23.5-5 195-41.8 0 66.3L32 224l0 288 448 0 0-288-200 0 0-76.6 205-43.9zM80 288l96 0 0 96-96 0 0-96zm224 0l0 96-96 0 0-96 96 0zm32 0l96 0 0 96-96 0 0-96z"/></svg>

<svg xmlns="http://www.w3.org/2000/svg" viewBox="0 0 512 512"><!--! Font Awesome Pro 6.4.0 by @fontawesome - https://fontawesome.com License - https://fontawesome.com/license (Commercial License) Copyright 2023 Fonticons, Inc. --><path d="M288 64a32 32 0 1 0 0-64 32 32 0 1 0 0 64zm-64-8a32 32 0 1 0 -64 0 32 32 0 1 0 64 0zm261 47.5l23.5-5L498.4 51.5l-23.5 5-224 48-224 48-23.5 5 10.1 46.9 23.5-5 195-41.8V224H32V512H480V224H280V147.4l205-43.9zM80 288h96v96H80V288zm224 0v96H208V288h96zm32 0h96v96H336V288z"/></svg>
